img/icon/instagram.svg

<?xml version="1.0" encoding="utf-8"?>
<!-- Generated by IcoMoon.io -->
<!DOCTYPE svg PUBLIC "-//W3C//DTD SVG 1.1//EN" "http://www.w3.org/Graphics/SVG/1.1/DTD/svg11.dtd">
<svg version="1.1" xmlns="http://www.w3.org/2000/svg" xmlns:xlink="http://www.w3.org/1999/xlink" width="32" height="32" viewBox="0 0 32 32">
<path fill="#444444" d="M26.688 0h-21.375c-2.922 0-5.313 2.391-5.313 5.313v21.375c0 2.922 2.391 5.313 5.313 5.313h21.375c2.922 0 5.313-2.391 5.313-5.313v-21.375c0-2.922-2.391-5.313-5.313-5.313zM10.244 14h11.513c0.218 0.627 0.337 1.3 0.337 2 0 3.36-2.734 6.094-6.094 6.094s-6.094-2.734-6.094-6.094c0-0.7 0.119-1.373 0.338-2zM28 14.002v11.998c0 1.1-0.9 2-2 2h-20c-1.1 0-2-0.9-2-2v-12h3.128c-0.145 0.644-0.222 1.313-0.222 2 0 5.014 4.079 9.094 9.094 9.094s9.094-4.079 9.094-9.094c0-0.687-0.077-1.356-0.222-2l3.128 0.002zM28 7c0 0.55-0.45 1-1 1h-2c-0.55 0-1-0.45-1-1v-2c0-0.55 0.45-1 1-1h2c0.55 0 1 0.45 1 1v2z"></path>
</svg>

<svg xmlns="http://www.w3.org/2000/svg" width="32" height="32" viewBox="0 0 32 32"><path fill="#444" d="M26.688 0H5.313C2.39 0 0 2.39 0 5.313v21.375C0 29.61 2.39 32 5.313 32h21.375C29.61 32 32 29.61 32 26.69V5.313C32 2.39 29.61 0 26.69 0zM10.244 14h11.513c.218.627.337 1.3.337 2 0 3.36-2.734 6.094-6.094 6.094S9.906 19.36 9.906 16c0-.7.12-1.373.338-2zM28 14.002V26c0 1.1-.9 2-2 2H6c-1.1 0-2-.9-2-2V14h3.128c-.145.644-.222 1.313-.222 2 0 5.014 4.08 9.094 9.094 9.094s9.094-4.08 9.094-9.094c0-.687-.077-1.356-.222-2l3.128.002zM28 7c0 .55-.45 1-1 1h-2c-.55 0-1-.45-1-1V5c0-.55.45-1 1-1h2c.55 0 1 .45 1 1v2z"/></svg>
